X: 2347
T: Bah Hamburg
R: waltz
M: 3/4
K: Aminor
~A2 EA GE|~A2 Ee dc|~A2 EA GE-|EA GE AG|
GA GE Fc-|cc- cc A/G/F|GA GE Fc-|cc- cB ce|
~A2 EA GE|~A2 Ee dc|~A2 EA GE-|EA GE AG|
EF- FA GB|cG- GG- GE|F/G/A GB cG-|GE cE A2:|
|:{d}e2 dc Ae|dc AA- AA|EA cA B2|EA cA Be|
ab ge ab|c'a ~a2 ge|de cA ~A2|EA cA Be:|

